svg/file-icons/Adobe-Illustrator.svg

<svg version="1.1" xmlns="http://www.w3.org/2000/svg" width="512px" height="512px"><style type="text/css">.st0{fill-rule:evenodd;clip-rule:evenodd;}</style><path class="st0" d="M172.0485687,108.0081253h53.3347931l76.6930847,256.9412842h-46.327301l-19.075943-73.1893311h-74.7465668l-19.4652405,73.1893311h-40.8770218l70.4641953-244.8728333V108.0081253z M226.161972,253.9974976l-26.4727478-108.6160889l-27.2513428,108.6160889H226.161972z M381.4946594,173.9983673H339.449707v190.9506683h42.0449524V173.9983673z M359.931366,99.8106613c-13.62146,0-24.6638489,10.9156494-24.6638489,24.3807983s11.0423889,24.3807907,24.6638489,24.3807907s24.6638184-10.9156494,24.6638184-24.3807907S373.5528259,99.8106613,359.931366,99.8106613z M512,512H0V0h512V512z"/></svg>

<svg xmlns="http://www.w3.org/2000/svg" width="512" height="512"><path fill-rule="evenodd" d="M172.049 108.008h53.334l76.693 256.941H255.75l-19.076-73.189h-74.746l-19.466 73.19h-40.877l70.465-244.873v-12.069zm54.113 145.99L199.689 145.38l-27.251 108.616h53.724zm155.333-80H339.45V364.95h42.045V174zM359.93 99.811c-13.621 0-24.663 10.915-24.663 24.38s11.042 24.381 24.663 24.381 24.664-10.915 24.664-24.38-11.042-24.381-24.664-24.381zM512 512H0V0h512v512z" clip-rule="evenodd"/></svg>
